icons/svg/pinterest.svg

﻿<?xml version="1.0" encoding="utf-8"?>
<!DOCTYPE svg PUBLIC "-//W3C//DTD SVG 1.1//EN" "http://www.w3.org/Graphics/SVG/1.1/DTD/svg11.dtd">
<svg xmlns="http://www.w3.org/2000/svg" xmlns:xlink="http://www.w3.org/1999/xlink" version="1.1" baseProfile="full" width="24" height="24" viewBox="0 0 24.00 24.00" enable-background="new 0 0 24.00 24.00" xml:space="preserve">
	<path fill="#000000" fill-opacity="1" stroke-width="0.2" stroke-linejoin="round" d="M 13.2494,17.2483C 12.2469,17.2483 11.2894,16.8245 10.6044,16.0983L 9.4144,20.0983L 9.3294,20.357L 9.2894,20.3433C 9.0444,20.7483 8.6094,20.9983 8.1244,20.9983C 7.3669,20.9983 6.7494,20.382 6.7494,19.622C 6.7494,19.5583 6.7569,19.4983 6.7669,19.4408L 6.74565,19.432L 6.81315,19.2095L 9.1244,12.257C 9.1244,12.257 8.8744,11.4908 8.8744,10.4158C 8.8744,8.26702 10.0269,7.62326 10.9544,7.62326C 11.8819,7.62326 12.7257,7.95452 12.7257,9.26326C 12.7257,10.9433 11.6144,11.8033 11.6144,13.017C 11.6144,13.942 12.3681,14.6945 13.2933,14.6945C 16.2106,14.6945 17.2494,12.4945 17.2494,10.4358C 17.2494,7.71327 14.8944,5.49827 11.9994,5.49827C 9.1044,5.49827 6.7494,7.71327 6.7494,10.4358C 6.75065,11.2783 6.9844,12.1158 7.4269,12.8545C 7.54315,13.0495 7.6044,13.2695 7.6044,13.4983C 7.6044,14.1883 7.04334,14.7483 6.3544,14.7483C 5.9094,14.7483 5.49315,14.5108 5.27065,14.1295C 4.60316,13.0095 4.2494,11.732 4.2494,10.4358C 4.2494,6.33451 7.72565,2.99827 11.9994,2.99827C 16.2731,2.99827 19.7494,6.33451 19.7494,10.4358C 19.7494,13.717 17.7144,17.2483 13.2494,17.2483 Z "/>
</svg>

<svg xmlns="http://www.w3.org/2000/svg" version="1.1" baseProfile="full" width="24" height="24" viewBox="0 0 24.00 24.00" xml:space="preserve"><path fill="#000" fill-opacity="1" stroke-width=".2" stroke-linejoin="round" d="M13.25 17.248c-1.003 0-1.96-.424-2.646-1.15l-1.19 4-.085.26-.04-.015c-.246.405-.68.655-1.166.655-.757 0-1.375-.616-1.375-1.376 0-.064.007-.124.017-.18l-.02-.01.066-.223 2.31-6.953s-.25-.766-.25-1.84c0-2.15 1.154-2.794 2.08-2.794.93 0 1.773.332 1.773 1.64 0 1.68-1.112 2.54-1.112 3.754 0 .925.754 1.678 1.68 1.678 2.917 0 3.955-2.2 3.955-4.26C17.25 7.714 14.893 5.5 12 5.5c-2.896 0-5.25 2.215-5.25 4.938 0 .842.234 1.68.677 2.418.116.196.177.416.177.644 0 .69-.56 1.25-1.25 1.25-.445 0-.86-.237-1.083-.618-.667-1.12-1.02-2.398-1.02-3.694 0-4.1 3.476-7.438 7.75-7.438 4.273 0 7.75 3.337 7.75 7.438 0 3.28-2.036 6.812-6.5 6.812z"/></svg>
